X:1
T:April is in my mistress' face
T:April is in my mistress' face
T:Thomas Morley (1558 - 1603)
T:published 1594
C:Thomas Morley (1558 - 1603)
%%score [ 1 2 3 4 ]
L:1/8
Q:1/2=76
M:2/2
K:F
V:1 treble nm="Soprano"
V:2 treble nm="Alto"
V:3 treble-8 nm="Tenor"
V:4 bass nm="Bass"
V:1
 d2 c B c2 d2 | %1
w: Ap- ril is in my|
 B2[Q:1/2=75]"^.7" c2[Q:1/2=74]"^.2" A4[Q:1/2=75]"^.1"[Q:1/2=72]"^.9"[Q:1/2=71]"^.1" | %2
w: mis- tress' face,|
[Q:1/2=76] z4 d2 d d | d2 d2 _e2 c2 | d4 A4 | B4 (G2 B2) | A4 d2 c B | c2 A2 B2 c2 | A4 z2 A2 | %9
w: Ap- ril is|in my mis- tress'|face, my|mis- tress' _|face, Ap- ril is|in my mis- tress'|face, and|
 B A B c d2 (B2 | A4) G4 | z2 B2 d c d e | f4 d2[Q:1/2=75]"^.9" _e2- | %13
w: Ju- ly in her eyes hath|_ place,|and Ju- ly in her|eyes, her eyes|
[Q:1/2=75]"^.4" e[Q:1/2=74]"^.9" (d[Q:1/2=74]"^.2"c[Q:1/2=73]"^.4"B[Q:1/2=72]"^.4" c4)[Q:1/2=69]"^.7" | %14
w: _ hath _ _ _|
[Q:1/2=76] B4 z2 d2 | c2 d2 _e4 | d4 z2 d2 | B2 d2 c4 | B4 d4 | c4 (d4- | d2 c2 B2 A2 | B8) | %22
w: place, with-|in her bo-|som, with-|in her bo-|som is|Sep- tem-|||
 A2 d2 d2 d2 | f8 | z2 c2 c2 c2 | _e4 e4 | B2 G2 B2 c2 | %27
w: ber, but in her|heart,|but in her|heart, her|heart a cold De-|
 d8-[Q:1/2=75]"^.9"[Q:1/2=75]"^.7"[Q:1/2=75]"^.1" | %28
w: cem-|
[Q:1/2=74]"^.2" d8[Q:1/2=72]"^.9"[Q:1/2=72]"^.1"[Q:1/2=71]"^.1" |[Q:1/2=66] =B8[Q:1/2=76] | %30
w: |ber,|
 z2 d2 d2 d2 | f8 | z2 c2 c2 c2 | _e4 e4 | B2[Q:1/2=76] G2[Q:1/2=75]"^.8" B2[Q:1/2=75]"^.4" c2 | %35
w: but in her|heart,|but in her|heart, her|heart a cold De-|
[Q:1/2=74]"^.7" d8-[Q:1/2=73]"^.8"[Q:1/2=72]"^.5"[Q:1/2=70]"^.8" | %36
w: cem-|
[Q:1/2=68]"^.7" d8[Q:1/2=66]"^.3"[Q:1/2=64]"^.8"[Q:1/2=63]"^.3" |[Q:1/2=56] =B8 |] %38
w: |ber.|
V:2
 B2 A G A2 D2 | G2 (AG^FE F2) | G4 z4 | D2 D D G2 G2 | G4 ^F4 | G4 z4 | z4 B2 A G | A2 ^F2 G2 G2 | %8
w: Ap- ril is in my|mis- tress' _ _ _ _|face,|Ap- ril is in my|mis- tress'|face,|Ap- ril is|in my mis- tress'|
 ^F4 z2 =F2 | G F G A B2 (G2 | ^F4) G4 | z2 F2 B2 B2 | A BcA B2 G2 | F6 F2 | F4 z2 B2 | A2 B4 A2 | %16
w: face, and|Ju- ly in her eyes hath|_ place,|and Ju- ly|in her _ _ eyes, her|eyes hath|place, with-|in her bo-|
 B4 F4 | G2 F2 F4 | F4 B4 | A4 (B4- | B2 A2 G2 F2 | G8) | ^F8 | z8 | z2 A2 A2 A2 | c4 G4 | G4 G4 | %27
w: som, with-|in her bo-|som is|Sep- tem-|||ber,||but in her|heart, her|heart a|
 F2 D2 (G4- | G2 ^FE F4) | G2 G2 G2 G2 | B4 B4 | A8 | z2 A2 A2 A2 | c4 G4 | G4 G4 | F2 D2 (G4- | %36
w: cold De- cem-||ber, but in her|heart, her|heart,|but in her|heart, her|heart a|cold De- cem-|
 G2 ^FE F4) | G8 |] %38
w: |ber.|
V:3
 z8 | z8 | z4 B2 A G | A2 B2 c2 (G2 | A8) | G4 d2 c B | c2 d2 B2 B2 | A2 d2 d2 _e2 | d8 | z8 | %10
w: ||Ap- ril is|in my mis- tress'|_|face, Ap- ril is|in my mis- tress'|face, my mis- tress'|face,||
 z4 z2 B2 | d c d e f2 B2 | c4 B2 c2- | cB (B4 A2) | B4 z2 B2 | f2 d2 c4 | B4 B4 | G2 B4 A2 | %18
w: and|Ju- ly in her eyes hath|place, her eyes|_ _ hath _|place, with-|in her bo-|som, with-|in her bo-|
 B4 f4- | f4 f4 | d8- | d8 | d4 z2 d2 | d2 d2 f4- | f4 f4 | c8 | z4 G4 | B4 B4 | A8 | G4 z2 G2 | %30
w: som is|_ Sep-|tem-||ber, but|in her heart,|_ her|heart|a|cold De-|cem-|ber, but|
 G2 G2 d4 | d4 f4- | f4 f4 | c8 | z4 G4 | B4 B4 | A8 | G8 |] %38
w: in her heart,|but in|_ her|heart|a|cold De-|cem-|ber.|
V:4
 z8 | z8 | z4 G,2 ^F, E, | ^F,2 G,2 C,2 _E,2 | D,8 | z4 B,2 A, G, | A,2 ^F,2 G,2 G,2 | %7
w: ||Ap- ril is|in my mis- tress'|face,|Ap- ril is|in my mis- tress'|
 C,2 D,2 G,2 C,2 | D,8 | z8 | z2 D,2 _E, F, G, A, | B,4 B,4 | F,4 G,2 _E,2 | F,8 | B,,8 | z8 | %16
w: face, my mis- tress'|face,||and Ju- ly in her|eyes hath|place, her eyes|hath|place,||
 z4 D,4 | _E,2 B,,2 F,4 | B,,8 | F,4 D,4 | G,8- | G,8 | D,8 | z2 D,2 D,2 D,2 | F,8 | %25
w: with-|in her bo-|som|is Sep-|tem-||ber,|but in her|heart,|
 z2 C,2 C,2 C,2 | _E,6 E,2 | B,,6 C,2 | D,8 | G,,8- | G,,8 | z2 D,2 D,2 D,2 | F,8 | %33
w: but in her|heart a|cold De-|cem-|ber,|_|but in her|heart,|
 z2 C,2 C,2 C,2 | _E,6 E,2 | B,,6 C,2 | D,8 | G,,8 |] %38
w: but in her|heart a|cold De-|cem-|ber.|

